X:231
T:Earl of March
R:Reel
B:The Athole Collection
M:C|
L:1/8
K:F
c|AfcA ~f2 cf|AfcA BGGB|AFAc dfeg|fcdB AFF:|
c|fage ~f2 cf|AfcA BGGe|afga ~fcdA|BGc>B AFFc|
fage ~f2cf|AfcA BGGB|AFA,F B,FCF|DdcB AFF||

